X:1
T:Title
%%score { ( 1 3 ) | 2 }
L:1/8
M:4/4
K:A
V:1 treble nm="Grand Piano"
V:3 treble 
V:2 bass 
V:1
 z4 z2[Q:1/4=112] F>E | D2 F2 [^EB]2 [EG]2 | [FA]6 F>E | D2 F2 B2 A2 |[M:3/4] [CE]6 |[M:1/4] F>E | %6
[M:4/4] D2 F2 [^EB]2 [EG]2 | [FA]6 F>F | E2 E2 F2 G2 |[M:3/4] [CA]6 |[M:1/4] [=GA]>[GA] | %11
[M:4/4] d4 A4 | c4 =G4 | [=GB]2 [GB]2 [GB]2 [GB]2 | [=GB]6 [GB]>[GB] | e2- [=Ge]2 B2- [GB]2 | %16
 d4 A4 | E2 E2 F2 G2 | [CA]6 [=GA]>[GA] | d4 A4 | c4 =G4 | [=GB]2 [GB]2 [GB]2 [GB]2 | %22
 [=GB]6 [GB]>[GB] | e2- [=Ge]2 B2- [GB]2 | d4 z4 | A2 A2 B2 c2 |[M:3/4] [Fd]6 |] %27
V:2
 z4 z2 [D,A,D]>[D,=G,D] | [D,F,]2 [D,A,D]2 [D,G,]2 [D,B,]2 | [D,A,]6 [D,A,D]>[D,=G,D] | %3
 [D,F,]2 [D,A,D]2 [D,=G,D]2 [D,F,D]2 |[M:3/4] [A,,A,]6 |[M:1/4] [D,A,D]>[D,=G,D] | %6
[M:4/4] [D,F,]2 [D,A,D]2 [D,G,]2 [D,B,]2 | [D,A,]6 [D,A,D]>[D,A,D] | %8
 [E,G,D]2 [E,G,D]2 [E,A,D]2 [E,B,D]2 |[M:3/4] [A,,A,]6 |[M:1/4] [A,,A,]>[A,,A,] | %11
[M:4/4] [D,A,]2 D,2 D,2 D,2 | [A,,A,]2 [A,,A,]2 [A,,A,]2 [A,,A,]2 | %13
 [A,,A,]2 [A,,A,]2 [C,A,]2 [C,A,]2 | [E,A,]6 [E,A,]>[E,A,] | [C,A,]2 [C,A,]2 [C,A,]2 [C,A,]2 | %16
 [D,A,]2 [D,A,]2 [D,A,]2 [D,A,]2 | [E,G,D]2 [E,G,D]2 [E,A,D]2 [E,B,D]2 | [A,,A,]6 [A,,A,]>[A,,A,] | %19
 [D,A,]2 D,2 D,2 D,2 | [A,,A,]2 [A,,A,]2 [A,,A,]2 [A,,A,]2 | [A,,A,]2 [A,,A,]2 [C,A,]2 [C,A,]2 | %22
 [E,A,]6 [E,A,]>[E,A,] | [C,A,]2 [C,A,]2 [C,A,]2 [C,A,]2 | %24
 [D,A,]2 [D,A,]2 [D,D]2[K:treble] [A,DF]2 | [A,C=G]2 [A,CG]2 [A,DG]2 [A,EG]2 | %26
[M:3/4][K:bass] [D,A,D]6 |] %27
V:3
 x8 | x8 | x8 | x8 |[M:3/4] x6 |[M:1/4] x2 |[M:4/4] x8 | x8 | x8 |[M:3/4] x6 |[M:1/4] x2 | %11
[M:4/4] F2 [A,F]2 [A,F]2 [A,F]2 | E2 E2 E2 E2 | x8 | x8 | =G2 z2 G2 z2 | F2 F2 F2 F2 | x8 | x8 | %19
 F2 [A,F]2 [A,F]2 [A,F]2 | E2 E2 E2 E2 | x8 | x8 | =G2 z2 G2 z2 | F2 F2 [FA]2 A2 | x8 | %26
[M:3/4] x6 |] %27

